X:1
T:Nckens polska
R:Polska
Z:Klas Krantz, 2006
L:1/8
M:3/4
K:Dm
"Dm"D>F A2"A7"^c2 | "Dm"e>f d2"C"=c2 | "Dm"A2 F2 "A7"A>G | "Dm"E>FD2z2 :|
"F"F2A2c>A | "Gm"G2 GF/G/"F"A2 | F2A2c>A | "Gm"GG ~A/G/F/G/ "F"A2 |
F>A "Gm"G2 "A7"A>G | E>F "Dm"D2d2 |: "A7"^c>d "Dm"AF A>G | "A7"E>F "Dm"D2z2 :|]
